/* XPM */
static char *_c3f9989b9134951f379a1c0893d7f58od5Q9cQDQUismSgn[] = {
/* columns rows colors chars-per-pixel */
"150 150 24 1 ",
"  c black",
". c gray3",
"X c #181818",
"o c #202020",
"O c gray19",
"+ c gray25",
"@ c #484848",
"# c #505050",
"$ c #606060",
"% c #686868",
"& c gray47",
"* c #808080",
"= c gray56",
"- c #979797",
"; c #9F9F9F",
": c #A7A7A7",
"> c #AFAFAF",
", c #B7B7B7",
"< c gray75",
"1 c gray81",
"2 c #DFDFDF",
"3 c #E7E7E7",
"4 c gray97",
"5 c white",
/* pixels */
"                                                                                                                                                      ",
"                                                                                                                                                      ",
"                                                                                                                                                      ",
"                                                                                                                                                      ",
"                                                                                                                                                      ",
"                                                                                                                                                      ",
"                                                                                                                                                      ",
"                                                                                                                                                      ",
"                                                                                                                                                      ",
"                                                                                                                                                      ",
"                                                                                                                                                      ",
"                                                                                                                                                      ",
"                                                                                                                                                      ",
"                                                                                                                                                      ",
"                                                                                                                                                      ",
"                                                                                                                                                      ",
"                                                                                                                                                      ",
"                                                                                                                                                      ",
"                                                                                                                                                      ",
"                                                                                                                                                      ",
"                                                                                                                                                      ",
"                                                                                                                                                      ",
"                                                                                                                                                      ",
"                                                                                                                                                      ",
"                                                                                                                                                      ",
"                                                                                                                                                      ",
"                                                                                                                                                      ",
"                                                                                                                                                      ",
"                                                                                                                                                      ",
"                                                                                                                                                      ",
"                                                                                                                                                      ",
"                                                                                                                                                      ",
"                                                                                                                                                      ",
"                                                                                                                                                      ",
"                                                                                                                                                      ",
"                                                                                                                                                      ",
"                                                                                                           @<$                                        ",
"                                                                                                           354                                        ",
"                                                                                                          @555                                        ",
"                                                                                                          3555                                        ",
"                                                                                                          555-                                        ",
"                                                                                                          555                                         ",
"                                                                                                          555                                         ",
"                                         @<$                                                             %555                                         ",
"                                         354                                                             355:                                         ",
"                                       @<555$                                                            555.                                         ",
"                                       355554$                                                           555                                          ",
"                                       5555554$                                                          555                                          ",
"                                       555&5554                                                         %555                                          ",
"                                      %555 &555*                                                        355:                                          ",
"                                      355:  =555*                                                       555.                                          ",
"                                      555.  .,555*                                                      555                                           ",
"                                      555    .,555*                                                     555                                           ",
"                                      555     .,555*                                                   @555                                           ",
"                                     X555      .,555*                                                  3555                                           ",
"                                     =551       .,555*                                                 555-                                           ",
"                                     355#        .,555*                                                555                                            ",
"                                     555          .,555&                                               555                                            ",
"                                    %555           .,554&                                              555                                            ",
"                                    355:            .4555O                                             555                                            ",
"                                    555.             &555>                                             555                                            ",
"                                    555               O555*                                            555                                            ",
"                                    555                ;555*                                           555                                            ",
"                                   X555                .,555*                                          555                                            ",
"                                   =551                 .,555*                                         555                                            ",
"                                   355#                  .,555*                                        555                                            ",
"                                   555                    .,555&                                       555                                            ",
"                                   555                     .,554                                       555                                            ",
"                                  X555                      .455*                                      555                                            ",
"                                  =551                       =555*                                     555                                            ",
"                                  355#                       .,555*                                    555                                            ",
"                                  555                         .,555*                                   555                                            ",
"                                  555                          .,555*                                  555                                            ",
"                                 X555                           .,555*                                 555                                            ",
"                                 =551                            .,555*                                555                                            ",
"                                 355#                             .,555&                               555                                            ",
"                                 555                               .,554%                              555                                            ",
"                                 555                                .4555*                             555                                            ",
"                                %555                                 &5555*                            555                                            ",
"                                355:                                  .,555O                           555                                            ",
"                                555.                                   .<552%                          555                                            ",
"                                555                                     O5555*                         555                                            ",
"                                555                                      -5555*                        555                                            ",
"                                555                                       .,555*                       555                                            ",
"                                555                                        .,555*                      555                                            ",
"                                555                                         .,555*                     555                                            ",
"                               %555                                          .,5552$                   555                                            ",
"                               355:                                           .,5554$                  555                                            ",
"                               555.                                            .;5554$                 555                                            ",
"                               555                                               &5554$                555                                            ",
"                               555                                                &5554$               555                                            ",
"                               555                                                 &5554$              555                                            ",
"                              %555                                                  &5554$             555                                            ",
"                              355:                                                   &5554$            555                                            ",
"                              555.                                                    &5554$           455&                                           ",
"                              555                                                      &5554           =554                                           ",
"                              555                                                       &5552$         .555                                           ",
"                              555                                                        =5554          555                                           ",
"                              555                                                        .;555&         555                                           ",
"                              555                                                          =554$        555                                           ",
"                              555                                                          .4554$       555                                           ",
"                              555                                                           &5554$      555                                           ",
"                              555                                                            &5554$     555                                           ",
"                              555                                                             &5554$    455o                                          ",
"                             %555                                                              &5554$   <55$                                          ",
"                             355:                                                               &5554$  *55;                                          ",
"                             555.                                                                &5554$ +552                                          ",
"                             555                                                                  &5554$.555                                          ",
"                             555                                                                   &5554 555                                          ",
"                             555                                                                    &555%555                                          ",
"                             555                                                                     4555555                                          ",
"                             555                                                                     &555555                                          ",
"                             555                                                                      .;5555                                          ",
"                             455                                                                        4555                                          ",
"                             &5-                                                                        &55-                                          ",
"                                                                                                                                                      ",
"                                                                                                                                                      ",
"                                                                                                                                                      ",
"                                                                                                                                                      ",
"                                                                                                                                                      ",
"                                                                                                                                                      ",
"                                                                                                                                                      ",
"                                                                                                                                                      ",
"                                                                                                                                                      ",
"                                                                                                                                                      ",
"                                                                                                                                                      ",
"                                                                                                                                                      ",
"                                                                                                                                                      ",
"                                                                                                                                                      ",
"                                                                                                                                                      ",
"                                                                                                                                                      ",
"                                                                                                                                                      ",
"                                                                                                                                                      ",
"                                                                                                                                                      ",
"                                                                                                                                                      ",
"                                                                                                                                                      ",
"                                                                                                                                                      ",
"                                                                                                                                                      ",
"                                                                                                                                                      ",
"                                                                                                                                                      ",
"                                                                                                                                                      ",
"                                                                                                                                                      ",
"                                                                                                                                                      ",
"                                                                                                                                                      ",
"                                                                                                                                                      ",
"                                                                                                                                                      ",
"                                                                                                                                                      ",
"                                                                                                                                                      ",
"                                                                                                                                                      ",
"                                                                                                                                                      "
};
