/* XPM */
static char *bb62d3653acd4e34dee1f0c20f33fda6DN4C9WiU0Y38b6gY[] = {
/* columns rows colors chars-per-pixel */
"150 150 21 1 ",
"  c black",
". c #080404",
"X c #0F0808",
"o c #170D0C",
"O c #1E1111",
"+ c #442625",
"@ c #532F2E",
"# c #5A3332",
"$ c #623736",
"% c #693B3A",
"& c #784342",
"* c #7F4746",
"= c #804746",
"- c #8E504E",
"; c #965452",
": c #AC615F",
"> c #E17F7B",
", c #E88380",
"< c #EE8683",
"1 c #F08784",
"2 c #F18885",
/* pixels */
"111111111111111111111111111111111111111111111111111111111111111111111111111111111111111111111111111111111111111111111111111111111111111111111111111111",
"111111111111111111111111111111111111111111111111111111111111111111111111111111111111111111111111111111111111111111111111111111111111111111111111111111",
"111111111111111111111111111111111111111111111111111111111111111111111111111111111111111111111111111111111111111111111111111111111111111111111111111111",
"111111111111111111111111111111111111111111111111111111111111111111111111111111111111111111111111111111111111111111111111111111111111111111111111111111",
"111111111111111111111111111111111111111111111111111111111111111111111111111111111111111111111111111111111111111111111111111111111111111111111111111111",
"111111111111111111111111111111111111111111111111111111111111111111111111111111111111111111111111111111111111111111111111111111111111111111111111111111",
"111111111111111111111111111111111111111111111111111111111111111111111111111111111111111111111111111111111111111111111111111111111111111111111111111111",
"111111111111111111111111111111111111111111111111111111111111111111111111111111111111111111111111111111111111111111111111111111111111111111111111111111",
"111111111111111111111111111111111111111111111111111111111111111111111111111111111111111111111111111111111111111111111111111111111111111111111111111111",
"111111111111111111111111111111111111111111111111111111111111111111111111111111111111111111111111111111111111111111111111111111111111111111111111111111",
"111111111111111111111111111111111111111111111111111111111111111111111111111111111111111111111111111111111111111111111111111111111111111111111111111111",
"111111111111111111111111111111111111111111111111111111111111111111111111111111111111111111111111111111111111111111111111111111111111111111111111111111",
"111111111111111111111111111111111111111111111111111111111111111111111111111111111111111111111111111111111111111111111111111111111111111111111111111111",
"111111111111111111111111111111111111111111111111111111111111111111111111111111111111111111111111111111111111111111111111111111111111111111111111111111",
"111111111111111111111111111111111111111111111111111111111111111111111111111111111111111111111111111111111111111111111111111111111111111111111111111111",
"111111111111111111111111111111111111111111111111111111111111111111111111111111111111111111111111111111111111111111111111111111111111111111111111111111",
"111111111111111111111111111111111111111111111111111111111111111111111111111111111111111111111111111111111111111111111111111111111111111111111111111111",
"111111111111111111111111111111111111111111111111111111111111111111111111111111111111111111111111111111111111111111111111111111111111111111111111111111",
"111111111111111111111111111111111111111111111111111111111111111111111111111111111111111111111111111111111111111111111111111111111111111111111111111111",
"111111111111111111111111111111111111111111111111111111111111111111111111111111111111111111111111111111111111111111111111111111111111111111111111111111",
"111111111111111111111111111111111111111111111111111111111111111111111111111111111111111111111111111111111111111111111111111111111111111111111111111111",
"111111111111111111111111111111111111111111111111111111111111111111111111111111111111111111111111111111111111111111111111111111111111111111111111111111",
"111111111111111111111111111111111111111111111111111111111111111111111111111111111111111111111111111111111111111111111111111111111111111111111111111111",
"111111111111111111111111111111111111111111111111111111111111111111111111111111111111111111111111111111111111111111111111111111111111111111111111111111",
"111111111111111111111111111111111111111111111111111111111111111111111111111111111111111111111111111111111111111111111111111111111111111111111111111111",
"111111111111111111111111111111111111111111111111111111111111111111111111111111111111111111111111111111111111111111111111111111111111111111111111111111",
"111111111111111111111111111111111111111111111111111111111111111111111111111111111111111111111111111111111111111111111111111111111111111111111111111111",
"111111111111111111111111111111111111111111111111111111111111111111111111111111111111111111111111111111111111111111111111111111111111111111111111111111",
"111111111111111111111111111111111111111111111111111111111111111111111111111111111111111111111111111111111111111111111111111111111111111111111111111111",
"111111111111111111111111111111111111111111111111111111111111111111111111111111111111111111111111111111111111111111111111111111111111111111111111111111",
"111111111111111111111111111111111111111111111111111111111111111111111111111111111111111111111111111111111111111111111111111111111111111111111111111111",
"111111111111111111111111111111111111111111111111111111111111111111111111:O                 O;111111111111111111111111111111111111111111111111111111111",
"11111111111111111111111111111111111111111111111111111111111111111111:O                       O-1111111111111111111111111111111111111111111111111111111",
"11111111111111111111111111111111111111111111111111111111111111111:O                            O-11111111111111111111111111111111111111111111111111111",
"1111111111111111111111111111111111111111111111111111111111111111;X        $111111111111111*      O-111111111111111111111111111111111111111111111111111",
"1111111111111111111111111111111111111111111111111111111111111:O       $111111111111111111111,#     &11111111111111111111111111111111111111111111111111",
"111111111111111111111111111111111111111111111111111111111111;X     $11111111111111111111111111,#    O;111111111111111111111111111111111111111111111111",
"1111111111111111111111111111111111111111111111111111111111;O     @,11111111111111111111111111111,+   .;11111111111111111111111111111111111111111111111",
"11111111111111111111111111111111111111111112111111111111:O     $111111111111111111111111111111111,#   .;1111111111111111121111111111111111111111111111",
"1111111111111111111111111111111111111111111111111111111;X    @,111111111111111111111111111111111111*   .;111111111111112111111111111111111111111111111",
"11111111111111111111111111111111111111121111111111111:O    @,111111111111111111111111111111111111111*   .111111111111111111111111111111111111111111111",
"1111111111111111111111111111111111111111111111111111:X    $111111111111111111111111111111111111111111*   *11111111111111111111111111111111111111111111",
"111111111111111111111111111111111111111111111111111;X   @,11111111111111111111111111111111111111111111%  .11111111111111111111111111111111111111111111",
"11111111111111111111111111111111121111111111111111-    $1111111111111111111111111111111111111111111111,@ #11111111111111111111111111111111111111111111",
"1111111111111111111111111111111111111111111111111:X   $11111111111111111111111111111111111111111111111111111111111111111111111111111111111111111111111",
"1111111111111111111111111111121111111111111111111o   ,111111211111111111111111111111111111111111111111111111111111111111111111111111111111111111111111",
"1111111111111111111111111112111111111111111111111   $1111111111111111111111111111111111111111111111111111111112111111111111111111111111111111111111111",
"1111111111111111111111111111111111111111111111111   11111111111111111111111111111111111111111111111111111111111111111111111111111111111111111111111111",
"1111111111111111111111111111111111111111111111111   11111121111111111111111111111111111111111111111111111111111111111111111111111111111111111111111111",
"1111111111111111111111111111111111111111111111111   11111111111111111111111111111111111111111111111111111111111111111111111111111111111111111111111111",
"1111111111111111111111111111111111111111111111111   11111111111111111111111111111111111111111111111111111111111111111111111111111111111111111111111111",
"1111111111111111111111111111111111111111111111111   11111111111111111111111111111111111111111111111111111111111111111111111111111111111111111111111111",
"1111111111111111111111111111111111111111111111111   ;1111111111111111111111111111111111111111111111111111111111111111111111111111111111111111111111111",
"1111111111111111111111111111111111111111111111111.  .1111111111111111111111111111111111111111111111111111111111111111111111111111111111111111111111111",
"1111111111111111111111111111111111111111111111111*   1111111111111111111111111111111111111111111111111111111111111111111111111111111111111111111111111",
"11111111111111111111111111111111111111111111111111.  &111111111111111111111111111111111111111111111111111111111111111111111111111111111111111111111111",
"11111111111111111111111111111111111111111111111111%   &11111111111111111111111111111111111111111111111111111111111111111111111111111111111111111111111",
"11111111111111111111111111111111111111111111111111,+   O;111112111111111111111111111111111111111111111111111211111111111111111111111111111111111111111",
"111111111111111111111111111111111111111111111111111,+                O-1111111111111111111111111111111111111111111111111111111111111111111111111111111",
"1111111111111111111111111111111111111111111111111111,#                     O;1111111111111111111111111111111111111111111111111111111111111111111111111",
"111111111111111111111111111111111111111111111111111111*                        O;111111111111111111111111111111111111111111111111111111111111111111111",
"11111111111111111111111111111111111111111111111111111111111111111111,#              O-1111111111111111111111111111111111111111111111111111111111111111",
"11111111111111111111111111111111111111111111111111111111111111111111111111*             O;111111111111111111111111111111111111111111111111111111111111",
"111111111111111111111111111111111111111111111111111111111111111111111111111111*           O-1111111111111111111111111111111111111111111111111111111111",
"11111111111111111111111111111111111111111111111111111111111111111111111111111111111,#       O;11211111111112111111111111111111111111111111111111111111",
"111111111111111111111111111111111111111111111111111111111111111111111111111111111111111*     .;1111111111111111111111111111111111111111111111111111111",
"11111111111111111111111111111111111111111111111111111111111111111111111111111111111111111,#   .;111111111121111111111111111111111111111111111111111111",
"11111111111111111111111111111111>1111111111111111111111111111111111111111111111111111111111*   .;11111111111111111111111111111111111111111111111111111",
"11111111111111111111111111111111111111111111111111111111111111111111111111111111111111111111*   .;1111111111111111111111111111111111111111111111111111",
"111111111111111112111111111111111111111111111111111111111111111111111111111111111111111111112*   .;111111111111111111111111111111111111111111111111111",
"1111111111111111111111111111111111111111111111111111111111111111111111111111111111111111111111*   .-11111111111111111111111111111111111111111111111111",
"11111111111112111111111111111111111111211111111111111111111111111111111111111111111111111111111*    *1111111111111111111111111111111111111111111111111",
"111111111111111111111111111111111111121111111111111111111111<11111111111111111111111111111111111=   .;111111111111111111111111111111111111111111111111",
"1111111111111111111111111111111111111111111111111111112111121111111111111111111111111111111111111,.  .;11111111111111111111111111111111111111111111111",
"11111111111111111111111111111111111111111111112111111111111111111111111111111111111111111111111111*   .11111111111111111111111111111111111111111111111",
"111111111111111111111111111111111111111111111111111111111111111<11111111111111111111111111111111111*   *1111111111111111111111111111111111111111111111",
"1111111111121112111111111111111111111111111111111111111111111111111111111111111111111111111111111111%  .;111111111111111111111111111111111111111111111",
"1111111111111111111111111111111111111111111111111111111111111111111111111111111111111111111111111111,.  .111111111111111111111111111111111111111111111",
"11111111111111111111111111111111111111111111111111111111111111111111111111111111111111111111111111111*   ;11111111111111111111111111111111111111111111",
"111111111111111111111111111111111111111111111111111111111111111111111111111111111111111111111111111111.  .11111111111111111111111111111111111111111111",
"111111111111111111111111111111111111111111111111111111111111111111111111111111111111111111111111111111*   11111111111111111111111111111111111111111111",
"111111111111111111111111111111111111111111111111111111111111111111111111111<111111111111111111111111111.  *1111111111111111111111111111111111111111111",
"1111111111111111111111111111111111111111111111111111111111111111111111111111111111111111111111111111111%  .1111111111111111111111111111111111111111111",
"1111111111111111111111111111211111111111111111111111111111111111111111111111111111111111111111111111111,   1111111111111111111111111111111111111111111",
"11111111111111111111111111221111111111111111111111111111111111111111111111111111111111111111111111111111   1111111111111111111111111111111111111111111",
"1111111111111111111111111111111111111111111112111111111111111111111111111111111<111111111111111111111111   1111111111111111111111111111111111111111111",
"11111111111111111111111211111111111111111111111111111111111111111111111111111111111111111111111111111111   1111111111111111111111111111111111111111111",
"11111111111111111111111111111111111111111111111111111111111111111111111111111111111111111111111111111111   1111111111111111111111111111111111111111111",
"1111111111111111111111111111111111111111111111111111111111111111111111111111111111111111111111111111111:   1111111111111111111111111111111111111111111",
"111111111111111111111111111111111111111111111111111111111111111111111111111111111111111111111111111111:X   1111111111111111111111111111111111111111111",
"111111111111111111111111111111111111111111111111111111111111111111111111111111111111111111111111111111o   $1111111111111111111111111111111111111111111",
"11111111111111111111111111111111111111111111111:OO;11111111111111111111111111111111111111111111111111:   $11111111111111111111111111111111111111111111",
"11111111111111111111111111111111111111111111111O  .;1111111111111111111111111111111111111111111111111o   111111111111111111111111111111111111111111111",
"11111111111111111111111111111111111111111111111*    O;111111111111111111111111111111111111111111111:O   $111111111111111111111111111111111111111111111",
"111111111111111111111111111111111111111111111111*     O;11111111111111111111111111111111111111111:O    @1111111111111111111111111111111111111111111111",
"1111111111111111111111111111111111111111111111111*     .-111111111111111111111111111111111111111:X    @,1111111111111111111111111111111111111111111111",
"111111111111111111111111111111111111111111111111111*     O;111111111111111111111111111111111111;X    $111111111111111111111111111111111111111111111111",
"11111111111111111111111111111111111111111111111111111*     O;11111111111111111111111111111111;O    $11111111111111111111111111111111111111111111111111",
"111111111111111111111111111111111111111111111111111111,#     O;1111111111111111111111111111;O     $111111111111111111111111111111111111111111111111111",
"11111111111111111111111111111111111111111111111111111111*      O;11111111111111111111111:O      @,1111111111111111111111111111111111111111111111111111",
"1111111111111111111111111111111111111111111111111111111111*     .-1111111111111111111;O       @,111111111111111111111111111111111111111111111111111111",
"111111111111111111111111111111111111111111111111111111111111*                               @,11111111111111111111111111111111111111111111111111111111",
"11111111111111111111111111111111111111111111111111111111111111*                           $11111111111111111111111111111111111111111111111111111111111",
"111111111111111111111111111111111111111111111111111111111111111,#                     @,11111111111111111111111111111111111111111111111111111111111111",
"111111111111111111111111111111111111111111111111111111111111111111111111111111111111111111111111111111111111111111111111111111111111111111111111111111",
"111111111111111111111111111111111111111111111111111111111111111111111111111111111111111111111111111111111111111111111111111111111111111111111111111111",
"111111111111111111111111111111111111111111111111111111111111111111111111111111111111111111111111111111111111111111111111111111111111111111111111111111",
"111111111111111111111111111111111111111111111111111111111111111111111111111111111111111111111111111111111111111111111111111111111111111111111111111111",
"111111111111111111111111111111111111111111111111111111111111111111111111111111111111111111111111111111111111111111111111111111111111111111111111111111",
"111111111111111111111111111111111111111111111111111111111111111111111111111111111111111111111111111111111111111111111111111111111111111111111111111111",
"111111111111111111111111111111211111111111111111111111111111111111111111111111111111111111111211111111111111111111111111111111111111111111111111111111",
"111111111111111111111111111111111111111111111111111111111111111111111111111111111111111111111111111111211111111111111111111111111111111111111111111111",
"111111111111111111111111111111111111111111111111111111111111111111111111111111111111111111111111111111111111111111111111111111111111111111111111111111",
"111111111111111111111111111111111111111111111111111111111111111111111111111111111111111111111111111111111111111111111111111111111111111111111111111111",
"111111111111111111111111111111111111111111111111111111111111111111111111111111111111111111111111111111111111111111111111111111111111111111111111111111",
"111111111111111111111111111111111111111111111111111111111111111111111111111111111111111111111111111111111111111111111111111111111111111111111111111111",
"111111111111111111111111111111111111111111111111111111111111111111111111111111111111111111111111111111111111111111111111111111111111111111111111111111",
"111111111111111111111111111111111111111111111111111111111111111111111111111111111111111111111111111111111111111111111111111111111111111111111111111111",
"111111111111111111111111111111111111111111111111111111111111111111111111111111111111111111111111111111111111111111111111111111111111111111111111111111",
"111111111111111111111111111111111111111111111111111111111111111111111111111111111111111111111111111111111111111111111111111111111111111111111111111111",
"111111111111111111111111111111111111111111111111111111111111111111111111111111111111111111111111111111111111111111111111111111111111111111111111111111",
"111111111111111111111111111111111111111111111111111111111111111111111111111111111111111111111111111111111111111111111111111111111111111111111111111111",
"111111111111111111111111111111111111111111111111111111111111111111111111111111111111111111111111111111111111111111111111111111111111111111111111111111",
"111111111111111111111111111111111111111111111111111111111111111111111111111111111111111111111111111111111111111111111111111111111111111111111111111111",
"111111111111111111111111111111111111111111111111111111111111111111111111111111111111111111111111111111111111111111111111111111111111111111111111111111",
"111111111111111111111111111111111111111111111111111111111111111111111111111111111111111111111111111111111111111111111111111111111111111111111111111111",
"111111111111111111111111111111111111111111111111111111111111111111111111111111111111111111111111111111111111111111111111111111111111111111111111111111",
"111111111111111111111111111111111111111111111111111111111111111111111111111111111111111111111111111111111111111111111111111111111111111111111111111111",
"111111111111111111111111111111111111111111111111111111111111111111111111111111111111111111111111111111111111111111111111111111111111111111111111111111",
"111111111111111111111111111111111111111111111111111111111111111111111111111111111111111111111111111111111111111111111111111111111111111111111111111111",
"111111111111111111111111111111111111111111111111111111111111111111111111111111111111111111111111111111111111111111111111111111111111111111111111111111",
"111111111111111111111111111111111111111111111111111111111111111111111111111111111111111111111111111111111111111111111111111111111111111111111111111111",
"111111111111111111111111111111111111111111111111111111111111111111111111111111111111111111111111111111111111111111111111111111111111111111111111111111",
"111111111111111111111111111111111111111111111111111111111111111111111111111111111111111111111111111111111111111111111111111111111111111111111111111111",
"111111111111111111111111111111111111111111111111111111111111111111111111111111111111111111111111111111111111111111111111111111111111111111111111111111",
"111111111111111111111111111111111111111111111111111111111111111111111111111111111111111111111111111111111111111111111111111111111111111111111111111111",
"111111111111111111111111111111111111111111111111111111111111111111111111111111111111111111111111111111111111111111111111111111111111111111111111111111",
"111111111111111111111111111111111111111111111111111111111111111111111111111111111111111111111111111111111111111111111111111111111111111111111111111111",
"111111111111111111111111111111111111111111111111111111111111111111111111111111111111111111111111111111111111111111111111111111111111111111111111111111",
"111111111111111111111111111111111111111111111111111111111111111111111111111111111111111111111111111111111111111111111111111111111111111111111111111111",
"111111111111111111111111111111111111111111111111111111111111111111111111111111111111111111111111111111111111111111111111111111111111111111111111111111",
"111111111111111111111111111111111111111111111111111111111111111111111111111111111111111111111111111111111111111111111111111111111111111111111111111111",
"111111111111111111111111111111111111111111111111111111111111111111111111111111111111111111111111111111111111111111111111111111111111111111111111111111",
"111111111111111111111111111111111111111111111111111111111111111111111111111111111111111111111111111111111111111111111111111111111111111111111111111111",
"111111111111111111111111111111111111111111111111111111111111111111111111111111111111111111111111111111111111111111111111111111111111111111111111111111",
"111111111111111111111111111111111111111111111111111111111111111111111111111111111111111111111111111111111111111111111111111111111111111111111111111111",
"111111111111111111111111111111111111111111111111111111111111111111111111111111111111111111111111111111111111111111111111111111111111111111111111111111",
"111111111111111111111111111111111111111111111111111111111111111111111111111111111111111111111111111111111111111111111111111111111111111111111111111111",
"111111111111111111111111111111111111111111111111111111111111111111111111111111111111111111111111111111111111111111111111111111111111111111111111111111",
"111111111111111111111111111111111111111111111111111111111111111111111111111111111111111111111111111111111111111111111111111111111111111111111111111111"
};
