/* XPM */
static char *b3bdda76fc004892ecfa4e2bba342faaMDNNFJQb5wQKBG25[] = {
/* columns rows colors chars-per-pixel */
"150 150 26 1 ",
"  c black",
". c gray3",
"X c #101010",
"o c #181818",
"O c #202020",
"+ c gray19",
"@ c gray25",
"# c #484848",
"$ c #505050",
"% c #585858",
"& c #606060",
"* c #686868",
"= c gray44",
"- c gray50",
"; c gray53",
": c #979797",
"> c #9F9F9F",
", c #AFAFAF",
"< c #B7B7B7",
"1 c gray75",
"2 c gray81",
"3 c #DFDFDF",
"4 c #E7E7E7",
"5 c #EFEFEF",
"6 c gray97",
"7 c white",
/* pixels */
"777777777777777777777777777777777777777777777777777777777777777777777777777777777777777777777777777777777777777777777777777777777777777777777777777777",
"777777777777777777777777777777777777777777777777777777777777777777777777777777777777777777777777777777777777777777777777777777777777777777777777777777",
"777777777777777777777777777777777777777777777777777777777777777777777777777777777777777777777777777777777777777777777777777777777777777777777777777777",
"777777777777777777777777777777777777777777777777777777777777777777777777777777777777777777777777777777777777777777777777777777777777777777777777777777",
"777777777777777777777777777777777777777777777777777777777777777777777777777777777777777777777777777777777777777777777777777777777777777777777777777777",
"777777777777777777777777777777777777777777777777777777777777777777777777777777777777777777777777777777777777777777777777777777777777777777777777777777",
"777777777777777777777777777777777777777777777777777777777777777777777777777777777777777777777777777777777777777777777777777777777777777777777777777777",
"777777777777777777777777777777777777777777777777777777777777777777777777777777777777777777777777777777777777777777777777777777777777777777777777777777",
"777777777777777777777777777777777777777777777777777777777777777777777777777777777777777777777777777777777777777777777777777777777777777777777777777777",
"777777777777777777777777777777777777777777777777777777777777777777777777777777777777777777777777777777777777777777777777777777777777777777777777777777",
"777777777777777777777777777777777777777777777777777777777777777777777777777777777777777777777777777777777777777777777777777777777777777777777777777777",
"777777777777777777777777777777777777777777777777777777777777777777777777777777777777777777777777777777777777777777777777777777777777777777777777777777",
"777777777777777777777777777777777777777777777777777777777777777777777777777777777777777777777777777777777777777777777777777777777777777777777777777777",
"777777777777777777777777777777777777777777777777777777777777777777777777777777777777777777777777777777777777777777777777777777777777777777777777777777",
"777777777777777777777777777777777777777777777777777777777777777777777777777777777777777777777777777777777777777777777777777777777777777777777777777777",
"777777777777777777777777777777777777777777777777777777777777777777777777777777777777777777777777777777777777777777777777777777777777777777777777777777",
"777777777777777777777777777777777777777777777777777777777777777777777777777777777777777777777777777777777777777777777777777777777777777777777777777777",
"777777777777777777777777777777777777777777777777777777777777777777777777777777777777777777777777777777777777777777777777777777777777777777777777777777",
"777777777777777777777777777777777777777777777777777777777777777777777777777777777777777777777777777777777777777777777777777777777777777777777777777777",
"777777777777777777777777777777777777777777777777777777777777777777777777777777777777777777777777777777777777777777777777777777777777777777777777777777",
"777777777777777777777777777777777777777777777777777777777777777777777777777777777777777777777777777777777777777777777777777777777777777777777777777777",
"777777777777777777777777777777777777777777777777777777777777777777777777777777777777777777777777777777777777777777777777777777777777777777777777777777",
"777777777777777777777777777777777777777777777777777777777777777777777777777777777777777777777777777777777777777777777777777777777777777777777777777777",
"777777777777777777777777777777777777777777777777777777777777777777777777777777777777777777777777777777777777777777777777777777777777777777777777777777",
"777777777777777777777777777777777777777777777777777777777777777777777777777777777777777777777777777777777777777777777777777777777777777777777777777777",
"777777777777777777777777777777777777777777777777777777777777777777777777777777777777777777777777777777777777777777777777777777777777777777777777777777",
"777777777777777777777777777777777777777777777777777777777777777777777777777777777777777777777777777777777777777777777777777777777777777777777777777777",
"777777777777777777777777777777777777777777777777777777777777777777777777777777777777777777777777777777777777777777777777777777777777777777777777777777",
"777777777777777777777777777777777777777777777777777777777777777777777777777777777777777777777777777777777777777777777777777777777777777777777777777777",
"777777777777777777777777777777777777777777777777777777777777777777777777777777777777777777777777777777777777777777777777777777777777777777777777777777",
"777777777777777777777777777777777777777777777777777777777777777777777777777777777777777777777777777777777777777777777777777777777777777777777777777777",
"777777777777777777777777777777777777777777777777777777777777777777777777777777777777777777777777777777777777777777777777777777777777777777777777777777",
"777777777777777777777777777777777777777777777777777777777777777777777777777777777777777777777777777777777777777777777777777777777777777777777777777777",
"777777777777777777777777777777777777777777777777777777777777777777777777777777777777777777777777777777777777777777777777777777777777777777777777777777",
"777777777777777777777777777777777777777777777777777777777777777777777777777777777777777777777777777777777777777777777777777777777777777777777777777777",
"777777777777777777777777777777777777777777777777777777777777777777777777777777777777777777777777777777777777777777777777777777777777777777777777777777",
"777777777777777777777777777777777777777777777777777777777777777777777777777777777777777777777777777777777777777777777777777777777777777777777777777777",
"777777777777777777777777777777777777777777777777777777777777777777777777777777777777777777777777777777777777777777777777777777777777777777777777777777",
"777777777777777777777777777777777777777777777777777777777777777777777777777777777777777777777777777777777777777777777777777777777777777777777777777777",
"777777777777777777777777777777777777777777777777777777777777777777777777777777777777777777777777777777777777777777777777777777777777777777777777777777",
"777777777777777777777777777777777777777777777777777777777777777777777777777777777777777777777777777777777777777777777777777777777777777777777777777777",
"777777777777777777777777777777777777777777777777777777777777777777777777777777777777777777777777777777777777777777777777777777777777777777777777777777",
"777777777777777777777777777777777777777777777777777777777777777777777777777777777777777777777777777777777777777777777777777777777777777777777777777777",
"777777777777777777777777777777777777777777777777777777777777777777777777777777777777777777777777777777777777777777777777777777777777777777777777777777",
"777777777777777777777777777777777777777777777777777777777777777777777777777777777777777777777777777777777777777777777777777777777777777777777777777777",
"7777777777777777777777777777777777777777777777777777777777777777777777777777777777777777777777777777777777777777<@>77777777777777777777777777777777777",
"7777777777777777777777777<OO>77777777777777777777777777777777777777777777777777777777777777777777777777777777777o .77777777777777777777777777777777777",
"7777777777777777777777777o  .77777777777777777777777777777777777777777777777777777777777777777777777777777777777   77777777777777777777777777777777777",
"7777777777777777777777777   *77777777777777777777777777777777777777777777777777777777777777777777777777777777777   77777777777777777777777777777777777",
"7777777777777777777777777   777777777777777777777777777777777777777777777777777777777777777777777777777777777777   77777777777777777777777777777777777",
"7777777777777777777777777   777777777777777777777777777777777777777777777777777777777777777777777777777777777777   77777777777777777777777777777777777",
"7777777777777777777777777   777777777777777777777777777777777777777777777777777777777777777777777777777777777777   77777777777777777777777777777777777",
"777777777777777777777777:   777777777777777777777777777777777777777777777777777777777777777777777777777777777777   77777777777777777777777777777777777",
"777777777777777777777777o  %777777777777777777777777777777777777777777777777777777777777777777777777777777777777   77777777777777777777777777777777777",
"777777777777777777777777   6777777777777777777777777777777777777777777777777777777777777777777777777777777777777   77777777777777777777777777777777777",
"777777777777777777777777   777777777777777777777777777777777777777<OO>777777777777777777777777777777777777777777   77777777777777777777777777777777777",
"777777777777777777777777   777777777777777777777777777777777777777o  .777777777777777777777777777777777777777777   77777777777777777777777777777777777",
"777777777777777777777777   777777777777777777777777777777777777777    777777777777777777777777777777777777777777   77777777777777777777777777777777777",
"77777777777777777777777<   777777777777777777777777777777777777777    >77777777777777777777777777777777777777777   77777777777777777777777777777777777",
"77777777777777777777777o   777777777777777777777777777777777777777    .77777777777777777777777777777777777777777   77777777777777777777777777777777777",
"77777777777777777777777   *77777777777777777777777777777777777777:     77777777777777777777777777777777777777777   77777777777777777777777777777777777",
"77777777777777777777777   777777777777777777777777777777777777777o     >7777777777777777777777777777777777777777   77777777777777777777777777777777777",
"77777777777777777777777   777777777777777777777777777777777777777   .  .7777777777777777777777777777777777777777   77777777777777777777777777777777777",
"77777777777777777777777   77777777777777777777777777777777777777<   ;   >777777777777777777777777777777777777777   77777777777777777777777777777777777",
"77777777777777777777777   77777777777777777777777777777777777777o   7.  .777777777777777777777777777777777777777   77777777777777777777777777777777777",
"77777777777777777777777   77777777777777777777777777777777777777   *7;   777777777777777777777777777777777777777   77777777777777777777777777777777777",
"7777777777777777777777:   7777777777777777777777777777777777777:   777   777777777777777777777777777777777777777   77777777777777777777777777777777777",
"7777777777777777777777o  %7777777777777777777777777777777777777o  %777.  ;77777777777777777777777777777777777777   77777777777777777777777777777777777",
"7777777777777777777777   67777777777777777777777777777777777777   6777=  .77777777777777777777777777777777777777   77777777777777777777777777777777777",
"7777777777777777777777   7777777777777777777777777777777777777:   77776   77777777777777777777777777777777777777   77777777777777777777777777777777777",
"7777777777777777777777   7777777777777777777777777777777777777o  %77777   77777777777777777777777777777777777777   77777777777777777777777777777777777",
"7777777777777777777777   777777777777777777777777777777777777:   677777.  ;7777777777777777777777777777777777777   77777777777777777777777777777777777",
"7777777777777777777777   777777777777777777777777777777777777o  %777777=  .7777777777777777777777777777777777777   77777777777777777777777777777777777",
"7777777777777777777777   77777777777777777777777777777777777<   67777776   7777777777777777777777777777777777777   77777777777777777777777777777777777",
"7777777777777777777777   77777777777777777777777777777777777o   77777777   7777777777777777777777777777777777777   77777777777777777777777777777777777",
"7777777777777777777777   77777777777777777777777777777777774   *77777777.  3777777777777777777777777777777777777   77777777777777777777777777777777777",
"7777777777777777777777   7777777777777777777777777777777777*  +777777777@  >777777777777777777777777777777777777   77777777777777777777777777777777777",
"7777777777777777777777   777777777777777777777777777777777:   ,777777777-  &777777777777777777777777777777777777   77777777777777777777777777777777777",
"7777777777777777777777   77777777777777777777777777777777<X  #77777777771  O777777777777777777777777777777777777   77777777777777777777777777777777777",
"7777777777777777777777   77777777777777777777777777777777o   677777777776.  277777777777777777777777777777777777   77777777777777777777777777777777777",
"7777777777777777777777   77777777777777777777777777777774   *777777777777$  $77777777777777777777777777777777777   77777777777777777777777777777777777",
"7777777777777777777777   7777777777777777777777777777777*  +77777777777772   77777777777777777777777777777777777   77777777777777777777777777777777777",
"7777777777777777777777   777777777777777777777777777777:   ,77777777777777.  47777777777777777777777777777777777   77777777777777777777777777777777777",
"7777777777777777777777   777777777777777777777777777774.  #777777777777777#  :777777777777777777777777777777777:   77777777777777777777777777777777777",
"7777777777777777777777   77777777777777777777777777777*  +6777777777777777>  @777777777777777777777777777777777o  %77777777777777777777777777777777777",
"7777777777777777777777   7777777777777777777777777777-   ,77777777777777775   >77777777777777777777777777777777   677777777777777777777777777777777777",
"7777777777777777777777.  277777777777777777777777777:   #777777777777777777.  .77777777777777777777777777777777   777777777777777777777777777777777777",
"7777777777777777777777%  $77777777777777777777777777o  #6777777777777777777;   7777777777777777777777777777777:   777777777777777777777777777777777777",
"77777777777777777777772   7777777777777777777777777-   677777777777777777777   7777777777777777777777777777777o  %777777777777777777777777777777777777",
"77777777777777777777777   777777777777777777777777:   %777777777777777777777.  ;777777777777777777777777777777   6777777777777777777777777777777777777",
"77777777777777777777777.  277777777777777777777777o  #6777777777777777777777=  .77777777777777777777777777777:   7777777777777777777777777777777777777",
"77777777777777777777777%  $7777777777777777777777:   677777777777777777777776.  ;7777777777777777777777777777o  %7777777777777777777777777777777777777",
"777777777777777777777772   ;777777777777777777777o  %777777777777777777777777=  .777777777777777777777777777,   67777777777777777777777777777777777777",
"777777777777777777777777&  .7777777777777777777<O   67777777777777777777777776   777777777777777777777777774.   77777777777777777777777777777777777777",
"7777777777777777777777776   7777777777777777777o   %77777777777777777777777777.  27777777777777777777777777=   *77777777777777777777777777777777777777",
"7777777777777777777777777.  2777777777777777777   %677777777777777777777777777%  $7777777777777777777777777o  ,777777777777777777777777777777777777777",
"7777777777777777777777777%  $77777777777777777:   77777777777777777777777777772   777777777777777777777777:   7777777777777777777777777777777777777777",
"77777777777777777777777772   77777777777777777o  %77777777777777777777777777777.  ;77777777777777777777777o  %7777777777777777777777777777777777777777",
"77777777777777777777777777   777777777777777<O   677777777777777777777777777777=  .>777777777777777777777:   67777777777777777777777777777777777777777",
"77777777777777777777777777   777777777777777o   %7777777777777777777777777777776.  .777777777777777777777o  %77777777777777777777777777777777777777777",
"77777777777777777777777777.  -7777777777777:   %67777777777777777777777777777777;   >7777777777777777777:   677777777777777777777777777777777777777777",
"77777777777777777777777777=   2777777777775o  %7777777777777777777777777777777777.  .777777777777777777<X  %777777777777777777777777777777777777777777",
"777777777777777777777777776@  $7777777777,X   67777777777777777777777777777777777;   77777777777777777<X   6777777777777777777777777777777777777777777",
"7777777777777777777777777772   >777777777o   #777777777777777777777777777777777777.  ;7777777777777777o   *7777777777777777777777777777777777777777777",
"7777777777777777777777777777.  .77777777-   >7777777777777777777777777777777777777=  .7777777777777775   *77777777777777777777777777777777777777777777",
"7777777777777777777777777777;   7777777-   %777777777777777777777777777777777777776   >7777777777777,X   777777777777777777777777777777777777777777777",
"77777777777777777777777777777.  ;77777:   #6777777777777777777777777777777777777777.  .777777777777<X   #777777777777777777777777777777777777777777777",
"77777777777777777777777777777=  .7777<X  #67777777777777777777777777777777777777777;   777777777777o   >7777777777777777777777777777777777777777777777",
"777777777777777777777777777776   777<X   6777777777777777777777777777777777777777777.  ;7777777777:   *77777777777777777777777777777777777777777777777",
"777777777777777777777777777777.  ;7<X   *7777777777777777777777777777777777777777777=  .777777777<X  %777777777777777777777777777777777777777777777777",
"777777777777777777777777777777=  .<X   *777777777777777777777777777777777777777777776   >77777777o   6777777777777777777777777777777777777777777777777",
"7777777777777777777777777777776.  .   *7777777777777777777777777777777777777777777777.  .>777777>   *7777777777777777777777777777777777777777777777777",
"7777777777777777777777777777777=     *77777777777777777777777777777777777777777777777;     O>77:    77777777777777777777777777777777777777777777777777",
"77777777777777777777777777777776.   %7777777777777777777777777777777777777777777777777;            *77777777777777777777777777777777777777777777777777",
"77777777777777777777777777777777;  %677777777777777777777777777777777777777777777777777;          6777777777777777777777777777777777777777777777777777",
"777777777777777777777777777777777777777777777777777777777777777777777777777777777777777777;      *7777777777777777777777777777777777777777777777777777",
"777777777777777777777777777777777777777777777777777777777777777777777777777777777777777777777777777777777777777777777777777777777777777777777777777777",
"777777777777777777777777777777777777777777777777777777777777777777777777777777777777777777777777777777777777777777777777777777777777777777777777777777",
"777777777777777777777777777777777777777777777777777777777777777777777777777777777777777777777777777777777777777777777777777777777777777777777777777777",
"777777777777777777777777777777777777777777777777777777777777777777777777777777777777777777777777777777777777777777777777777777777777777777777777777777",
"777777777777777777777777777777777777777777777777777777777777777777777777777777777777777777777777777777777777777777777777777777777777777777777777777777",
"777777777777777777777777777777777777777777777777777777777777777777777777777777777777777777777777777777777777777777777777777777777777777777777777777777",
"777777777777777777777777777777777777777777777777777777777777777777777777777777777777777777777777777777777777777777777777777777777777777777777777777777",
"777777777777777777777777777777777777777777777777777777777777777777777777777777777777777777777777777777777777777777777777777777777777777777777777777777",
"777777777777777777777777777777777777777777777777777777777777777777777777777777777777777777777777777777777777777777777777777777777777777777777777777777",
"777777777777777777777777777777777777777777777777777777777777777777777777777777777777777777777777777777777777777777777777777777777777777777777777777777",
"777777777777777777777777777777777777777777777777777777777777777777777777777777777777777777777777777777777777777777777777777777777777777777777777777777",
"777777777777777777777777777777777777777777777777777777777777777777777777777777777777777777777777777777777777777777777777777777777777777777777777777777",
"777777777777777777777777777777777777777777777777777777777777777777777777777777777777777777777777777777777777777777777777777777777777777777777777777777",
"777777777777777777777777777777777777777777777777777777777777777777777777777777777777777777777777777777777777777777777777777777777777777777777777777777",
"777777777777777777777777777777777777777777777777777777777777777777777777777777777777777777777777777777777777777777777777777777777777777777777777777777",
"777777777777777777777777777777777777777777777777777777777777777777777777777777777777777777777777777777777777777777777777777777777777777777777777777777",
"777777777777777777777777777777777777777777777777777777777777777777777777777777777777777777777777777777777777777777777777777777777777777777777777777777",
"777777777777777777777777777777777777777777777777777777777777777777777777777777777777777777777777777777777777777777777777777777777777777777777777777777",
"777777777777777777777777777777777777777777777777777777777777777777777777777777777777777777777777777777777777777777777777777777777777777777777777777777",
"777777777777777777777777777777777777777777777777777777777777777777777777777777777777777777777777777777777777777777777777777777777777777777777777777777",
"777777777777777777777777777777777777777777777777777777777777777777777777777777777777777777777777777777777777777777777777777777777777777777777777777777",
"777777777777777777777777777777777777777777777777777777777777777777777777777777777777777777777777777777777777777777777777777777777777777777777777777777",
"777777777777777777777777777777777777777777777777777777777777777777777777777777777777777777777777777777777777777777777777777777777777777777777777777777",
"777777777777777777777777777777777777777777777777777777777777777777777777777777777777777777777777777777777777777777777777777777777777777777777777777777",
"777777777777777777777777777777777777777777777777777777777777777777777777777777777777777777777777777777777777777777777777777777777777777777777777777777",
"777777777777777777777777777777777777777777777777777777777777777777777777777777777777777777777777777777777777777777777777777777777777777777777777777777",
"777777777777777777777777777777777777777777777777777777777777777777777777777777777777777777777777777777777777777777777777777777777777777777777777777777",
"777777777777777777777777777777777777777777777777777777777777777777777777777777777777777777777777777777777777777777777777777777777777777777777777777777",
"777777777777777777777777777777777777777777777777777777777777777777777777777777777777777777777777777777777777777777777777777777777777777777777777777777",
"777777777777777777777777777777777777777777777777777777777777777777777777777777777777777777777777777777777777777777777777777777777777777777777777777777",
"777777777777777777777777777777777777777777777777777777777777777777777777777777777777777777777777777777777777777777777777777777777777777777777777777777",
"777777777777777777777777777777777777777777777777777777777777777777777777777777777777777777777777777777777777777777777777777777777777777777777777777777",
"777777777777777777777777777777777777777777777777777777777777777777777777777777777777777777777777777777777777777777777777777777777777777777777777777777",
"777777777777777777777777777777777777777777777777777777777777777777777777777777777777777777777777777777777777777777777777777777777777777777777777777777"
};
